_icons/SVG/030-nidorina.svg

<svg xmlns="http://www.w3.org/2000/svg" width="32" height="32"><path fill="#71B1E1" d="M22 21s3 0 3 5-3 6-3 6h-3c-1.365 0-1-11-1-11h4z"/><path fill="#7FB8E0" d="M10 21s-3 0-3 5 3 6 3 6h3c1.365 0 1-11 1-11h-4z"/><path fill="#E2EFF7" d="M16 16a7 7 0 100 14V16z"/><path fill="#D2E6F3" d="M23 23a7 7 0 00-7-7v14a7 7 0 007-7zm-13.965.698A7.001 7.001 0 0016 30v-3a8.982 8.982 0 01-6.965-3.302z"/><path fill="#C1DDEE" d="M16 27v3a7.001 7.001 0 006.965-6.302A8.982 8.982 0 0116 27z"/><path fill="#7FB8E0" d="M23 14s4.932 2.816 3.235 10.996a.98.98 0 01-1.191.765l-2.496-.624a.981.981 0 01-.692-.656C21.441 23.201 20.001 20 16 20v-6h7z"/><path fill="#B0D3EA" d="M31.666.639L31.247.22a.749.749 0 00-.53-.22h-1.689c-1.477 0-2.705.34-3.73.871l.044-.082a.46.46 0 00-.073-.548l-.01-.01a.456.456 0 00-.545-.077c-2.102 1.179-3.218 4.814-3.492 5.818C19.891 4.741 18.125 4 16 4v15c2 0 8-1.029 8-6 0-.73-.073-1.435-.2-2.115 2.295-.414 4.02-1.429 5.123-3.038.67-.977 1.019-2.049 1.188-3.058a5.078 5.078 0 011.599-.831.452.452 0 00.317-.433v-.244a.455.455 0 00-.251-.407l-.749-.374c.153-.614.422-.997.643-1.222a.454.454 0 00-.004-.639z"/><path fill="#8EC0E0" d="M9 14s-4.932 2.816-3.235 10.996a.98.98 0 001.191.765l2.496-.624a.981.981 0 00.692-.656C10.559 23.201 11.999 20 16 20v-6H9z"/><path fill="#4896C8" d="M22.057 6.854c.184-.857 1.429-5.585 6.531-5.843a.502.502 0 01.523.415c.27 1.621.766 7.368-5.516 8.484-.33-1.146-.848-2.182-1.538-3.056z"/><path fill="#C1DDEE" d="M10.801 5.953C10.52 4.926 9.405 1.326 7.314.154a.456.456 0 00-.545.077l-.008.008a.46.46 0 00-.075.55l.044.082C5.705.34 4.477 0 3 0H1.311a.747.747 0 00-.53.22l-.42.419a.455.455 0 00-.004.639c.221.225.49.608.643 1.222l-.749.374A.455.455 0 000 3.281v.244c0 .199.127.375.317.434.367.113.998.358 1.599.831.169 1.008.519 2.08 1.188 3.057C4.202 9.45 5.919 10.464 8.2 10.881c-.127.68-.2 1.388-.2 2.119 0 4.971 6 6 8 6V4c-2.113 0-3.871.734-5.199 1.953z"/><path fill="#B0D3EA" d="M8.087 13.964C8.809 18.103 14.137 19 16 19v-4.207a.502.502 0 01-.354-.146l-.793-.793a.5.5 0 00-.707 0l-.856.856a.499.499 0 01-.631.062l-.8-.533a3.846 3.846 0 00-3.772-.275z"/><path fill="#9FC9E4" d="M23.913 13.964a3.846 3.846 0 00-3.772.276l-.8.533a.501.501 0 01-.631-.062l-.857-.857a.5.5 0 00-.707 0l-.793.793a.498.498 0 01-.354.146V19c1.864 0 7.192-.897 7.914-5.036z"/><path fill="#FFF" d="M11.312 9.062a3.971 3.971 0 00-1.303 2.672.256.256 0 00.256.266h3.215a.25.25 0 00.195-.406l-1.998-2.497a.252.252 0 00-.365-.035z"/><path fill="#E85160" d="M12.134 9.668A2.981 2.981 0 0011 12h2.48a.25.25 0 00.195-.406l-1.541-1.926z"/><path fill="#F7F7F7" d="M20.697 9.062A3.971 3.971 0 0122 11.734a.257.257 0 01-.257.266h-3.215a.25.25 0 01-.195-.406l1.998-2.497a.253.253 0 01.366-.035z"/><path fill="#D84459" d="M19.874 9.668A2.983 2.983 0 0121.008 12h-2.48a.25.25 0 01-.195-.406l1.541-1.926z"/><path fill="#529CCF" d="M9.97 6.854c-.185-.857-1.429-5.585-6.531-5.843a.502.502 0 00-.523.415c-.27 1.621-.766 7.368 5.516 8.484.331-1.146.849-2.182 1.538-3.056z"/><path fill="#FFF" d="M10.834 13.764a3.842 3.842 0 00-1.695-.117c.2.881.576 2.353.861 2.353.272 0 .629-1.347.834-2.236z"/><path fill="#F7F7F7" d="M21.166 13.764c.205.889.562 2.236.834 2.236.285 0 .661-1.472.861-2.353a3.842 3.842 0 00-1.695.117z"/><path fill="#4390BF" d="M29.243 3.016a10.563 10.563 0 00-.134-1.587.503.503 0 00-.523-.418c-5.1.259-6.344 4.986-6.529 5.843.278.353.521.739.742 1.141.567-1.663 2.211-4.837 6.444-4.979z"/><path fill="#4896C8" d="M9.228 7.995c.221-.403.464-.788.742-1.141-.185-.857-1.429-5.584-6.529-5.843a.503.503 0 00-.523.418c-.058.36-.127.921-.134 1.587 4.233.142 5.877 3.316 6.444 4.979z"/><path fill="#5BD3D5" d="M9.97 6.854C10 7 8 4 7 4S5 6 5 7c0 .778 2.417 2.159 3.491 2.734.332-1.075.826-2.052 1.479-2.88z"/><path fill="#56C7CD" d="M22.058 6.854C22.028 7 24.028 4 25.028 4s2 2 2 3c0 .778-2.417 2.159-3.491 2.734-.333-1.075-.826-2.052-1.479-2.88z"/><path fill="#51BAC5" d="M25.533 4.176c-.166-.102-.335-.176-.505-.176-1 0-3 3-2.97 2.854.278.353.522.738.742 1.141.357-1.049 1.14-2.705 2.733-3.819z"/><path fill="#56C7CD" d="M9.228 7.995c.22-.403.464-.789.742-1.142C10 7 8 4 7 4c-.171 0-.339.074-.505.176 1.593 1.115 2.376 2.77 2.733 3.819z"/></svg>

<?xml version="1.0" encoding="utf-8"?>
<!-- Generator: Adobe Illustrator 23.0.6, SVG Export Plug-In . SVG Version: 6.00 Build 0)  -->
<svg version="1.1" xmlns="http://www.w3.org/2000/svg" xmlns:xlink="http://www.w3.org/1999/xlink" x="0px" y="0px" width="32px"
	 height="32px" viewBox="0 0 32 32" enable-background="new 0 0 32 32" xml:space="preserve">
<g id="icons">
	<g>
		<path fill="#71B1E1" d="M22,21c0,0,3,0,3,5s-3,6-3,6s-1.635,0-3,0s-1-11-1-11H22z"/>
		<path fill="#7FB8E0" d="M10,21c0,0-3,0-3,5s3,6,3,6s1.635,0,3,0s1-11,1-11H10z"/>
		<path fill="#E2EFF7" d="M16,16c-3.866,0-7,3.134-7,7c0,3.866,3.134,7,7,7V16z"/>
		<path fill="#D2E6F3" d="M23,23c0-3.866-3.134-7-7-7v14C19.866,30,23,26.866,23,23z"/>
		<path fill="#D2E6F3" d="M9.035,23.698C9.386,27.236,12.37,30,16,30v-3C13.192,27,10.686,25.713,9.035,23.698z"/>
		<path fill="#C1DDEE" d="M16,27v3c3.63,0,6.614-2.764,6.965-6.302C21.314,25.713,18.808,27,16,27z"/>
		<path fill="#7FB8E0" d="M23,14c0,0,4.932,2.816,3.235,10.996c-0.114,0.547-0.648,0.901-1.191,0.765l-2.496-0.624
			c-0.33-0.082-0.587-0.333-0.692-0.656C21.441,23.201,20.001,20,16,20v-6H23z"/>
		<path fill="#B0D3EA" d="M31.666,0.639L31.247,0.22C31.106,0.079,30.916,0,30.717,0h-1.689c-1.477,0-2.705,0.34-3.73,0.871
			c0.015-0.029,0.029-0.056,0.044-0.082c0.099-0.18,0.072-0.403-0.073-0.548l-0.01-0.01c-0.144-0.144-0.367-0.177-0.545-0.077
			c-2.102,1.179-3.218,4.814-3.492,5.818C19.891,4.741,18.125,4,16,4v15c2,0,8-1.029,8-6c0-0.73-0.073-1.435-0.2-2.115
			c2.295-0.414,4.02-1.429,5.123-3.038c0.67-0.977,1.019-2.049,1.188-3.058c0.601-0.472,1.232-0.717,1.599-0.831
			c0.19-0.059,0.317-0.235,0.317-0.433V3.281c0-0.172-0.097-0.33-0.251-0.407L31.027,2.5c0.153-0.614,0.422-0.997,0.643-1.222
			C31.844,1.099,31.843,0.815,31.666,0.639z"/>
		<path fill="#8EC0E0" d="M9,14c0,0-4.932,2.816-3.235,10.996c0.114,0.547,0.648,0.901,1.191,0.765l2.496-0.624
			c0.33-0.082,0.587-0.333,0.692-0.656C10.559,23.201,11.999,20,16,20v-6H9z"/>
		<path fill="#4896C8" d="M22.057,6.854c0.184-0.857,1.429-5.585,6.531-5.843c0.254-0.013,0.481,0.164,0.523,0.415
			c0.27,1.621,0.766,7.368-5.516,8.484C23.265,8.764,22.747,7.728,22.057,6.854z"/>
		<path fill="#C1DDEE" d="M10.801,5.953c-0.281-1.027-1.396-4.627-3.487-5.799c-0.178-0.1-0.401-0.067-0.545,0.077L6.761,0.239
			c-0.147,0.147-0.174,0.37-0.075,0.55C6.7,0.815,6.715,0.842,6.73,0.871C5.705,0.34,4.477,0,3,0H1.311
			c-0.199,0-0.39,0.079-0.53,0.22L0.361,0.639c-0.176,0.176-0.178,0.46-0.004,0.639C0.578,1.503,0.847,1.886,1,2.5L0.251,2.874
			C0.097,2.951,0,3.109,0,3.281v0.244C0,3.724,0.127,3.9,0.317,3.959c0.367,0.113,0.998,0.358,1.599,0.831
			C2.085,5.798,2.435,6.87,3.104,7.847c1.098,1.603,2.815,2.617,5.096,3.034C8.073,11.561,8,12.269,8,13c0,4.971,6,6,8,6V4
			C13.887,4,12.129,4.734,10.801,5.953z"/>
		<path fill="#B0D3EA" d="M8.087,13.964C8.809,18.103,14.137,19,16,19v-4.207c-0.128,0-0.256-0.049-0.354-0.146l-0.793-0.793
			c-0.195-0.195-0.512-0.195-0.707,0L13.29,14.71c-0.169,0.169-0.433,0.195-0.631,0.062l-0.8-0.533
			C10.735,13.49,9.305,13.391,8.087,13.964z"/>
		<path fill="#9FC9E4" d="M23.913,13.964c-1.218-0.573-2.649-0.473-3.772,0.276l-0.8,0.533c-0.198,0.132-0.462,0.106-0.631-0.062
			l-0.857-0.857c-0.195-0.195-0.512-0.195-0.707,0l-0.793,0.793c-0.098,0.098-0.226,0.146-0.354,0.146V19
			C17.863,19,23.191,18.103,23.913,13.964z"/>
		<g>
			<path fill="#FFFFFF" d="M11.312,9.062c-0.739,0.674-1.232,1.612-1.303,2.672C9.999,11.877,10.121,12,10.265,12h3.215
				c0.21,0,0.326-0.242,0.195-0.406l-1.998-2.497C11.588,8.984,11.418,8.965,11.312,9.062z"/>
			<path fill="#E85160" d="M12.134,9.668C11.448,10.218,11,11.052,11,12h2.48c0.21,0,0.326-0.242,0.195-0.406L12.134,9.668z"/>
		</g>
		<g>
			<path fill="#F7F7F7" d="M20.697,9.062c0.739,0.674,1.232,1.612,1.303,2.672C22.009,11.877,21.887,12,21.743,12h-3.215
				c-0.21,0-0.326-0.242-0.195-0.406l1.998-2.497C20.421,8.984,20.591,8.965,20.697,9.062z"/>
			<path fill="#D84459" d="M19.874,9.668c0.686,0.55,1.134,1.385,1.134,2.332h-2.48c-0.21,0-0.326-0.242-0.195-0.406L19.874,9.668z"
				/>
		</g>
		<path fill="#529CCF" d="M9.97,6.854C9.785,5.997,8.541,1.269,3.439,1.011C3.185,0.998,2.958,1.175,2.916,1.426
			C2.646,3.047,2.15,8.794,8.432,9.91C8.763,8.764,9.281,7.728,9.97,6.854z"/>
		<path fill="#FFFFFF" d="M10.834,13.764c-0.55-0.165-1.128-0.205-1.695-0.117C9.339,14.528,9.715,16,10,16
			C10.272,16,10.629,14.653,10.834,13.764z"/>
		<path fill="#F7F7F7" d="M21.166,13.764C21.371,14.653,21.728,16,22,16c0.285,0,0.661-1.472,0.861-2.353
			C22.294,13.559,21.716,13.599,21.166,13.764z"/>
		<path fill="#4390BF" d="M29.243,3.016c-0.006-0.666-0.075-1.227-0.134-1.587c-0.041-0.252-0.268-0.431-0.523-0.418
			c-5.1,0.259-6.344,4.986-6.529,5.843c0.278,0.353,0.521,0.739,0.742,1.141C23.366,6.332,25.01,3.158,29.243,3.016z"/>
		<path fill="#4896C8" d="M9.228,7.995C9.449,7.592,9.692,7.207,9.97,6.854C9.785,5.997,8.541,1.27,3.441,1.011
			C3.186,0.998,2.959,1.177,2.918,1.429C2.86,1.789,2.791,2.35,2.784,3.016C7.017,3.158,8.661,6.332,9.228,7.995z"/>
		<path fill="#5BD3D5" d="M9.97,6.854C10,7,8,4,7,4S5,6,5,7c0,0.778,2.417,2.159,3.491,2.734C8.823,8.659,9.317,7.682,9.97,6.854z"
			/>
		<path fill="#56C7CD" d="M22.058,6.854C22.028,7,24.028,4,25.028,4s2,2,2,3c0,0.778-2.417,2.159-3.491,2.734
			C23.204,8.659,22.711,7.682,22.058,6.854z"/>
		<path fill="#51BAC5" d="M25.533,4.176C25.367,4.074,25.198,4,25.028,4c-1,0-3,3-2.97,2.854c0.278,0.353,0.522,0.738,0.742,1.141
			C23.157,6.946,23.94,5.29,25.533,4.176z"/>
		<path fill="#56C7CD" d="M9.228,7.995c0.22-0.403,0.464-0.789,0.742-1.142C10,7,8,4,7,4C6.829,4,6.661,4.074,6.495,4.176
			C8.088,5.291,8.871,6.946,9.228,7.995z"/>
	</g>
</g>
<g id="labels">
</g>
</svg>
